X: 10631
T: Selection -- OLD TOWLER
N: Arranged by W.B. Laybourn
R: jig
B: K\"ohler's Violin Repository, v.1, 1885 p.63 #1
F: http://www.archive.org/details/klersviolinrepos01edin
Z: 2012 John Chambers <jc:trillian.mit.edu>
M: 6/8
L: 1/8
K: D
uA |\
(.[d2F2].d) B>AG | ([F2A,2]G) (.[A2F2].[AF]) | (.[B2G2].[BG]) (g2f) | [f3d3] (.[e2c2].A) |\
(.d2.d) (f2d) | (.[B2^G2].B) (e2d) | [cE]>dc B>cB | A3- A2 :|
uA |\
(e2c) (.A2.A) | (f2d) H[A2F2]uA | Bcd efg | [f3d3] H[e2c2]A/G/ |\
[FA,]>GA Bcd | efg afd | [BG]>ed {d}cBc | d3- d2(F/G/) |
A3 A3 | Adz z2uA | FAF FAF | Adz z2vc/ud/ |\
e3 e3 | eaz z2ue | ece ece | eHgz z2va/ug/ |
f<dd d>ef | e>AA A2g | f<dd d>ef | e<AA A2A |\
d>ff d>ff | (da)z z2uA | d>ff d>ff | (da)z z2u(A/G/) |
[FA,]>GA Bcd | efg afd | [BF]>ed {d}cBc | d3 [g3d3] |\
(.[f2d2].f) {f}e^de | [a3A3] [g3A3] | (.[f2A2D2].f) {f}e^de | =d3- "^D.C."d2 |]

%%sep 2 1 500

